svg/furkot/mapbox-maki/building.svg

<svg viewBox="0 0 512 512" xmlns="http://www.w3.org/2000/svg"><path d="m47 0v512h232.728v-139.636h139.636v139.636h46.545v-512zm186.183 465.453h-139.638v-93.089h139.638zm0-139.636h-139.638v-93.089h139.638zm0-139.636h-139.638v-93.091h139.638zm186.181 139.636h-139.636v-93.089h139.636zm0-139.636h-139.636v-93.091h139.636z"/></svg>

<svg viewBox="0 0 512 512" xmlns="http://www.w3.org/2000/svg"><path d="M 47 0 L 47 512 L 279.728 512 L 279.728 372.364 L 419.364 372.364 L 419.364 512 L 465.909 512 L 465.909 0 L 47 0 Z M 233.183 465.453 L 93.545 465.453 L 93.545 372.364 L 233.183 372.364 L 233.183 465.453 Z M 233.183 325.817 L 93.545 325.817 L 93.545 232.728 L 233.183 232.728 L 233.183 325.817 Z M 233.183 186.181 L 93.545 186.181 L 93.545 93.09 L 233.183 93.09 L 233.183 186.181 Z M 419.364 325.817 L 279.728 325.817 L 279.728 232.728 L 419.364 232.728 L 419.364 325.817 Z M 419.364 186.181 L 279.728 186.181 L 279.728 93.09 L 419.364 93.09 L 419.364 186.181 Z"/></svg>
